!!!COM: Music21
!!!OTL: Jota de Paradela
!!!OMV: pezas_jotas_jota-de-paradela_jota-de-paradela-partitura.musicxml
**kern
*part1
*staff1
*I"Bagpipes
*I'Bag
*clefG^2
*k[]
*M3/4
=1
!LO:TX:a:t=Prestissimo
*MM220
!LO:TX:a:t=[quarter]=220
4r
8ggL
8aaJ
8ggL
8ffJ
=||
8eemL
8ddJ
8eeL
8ffJ
[4gg
=
4gg]
8aaL
8bbJ
8aaL
8ggJ
=
8ffML
8eeJ
8ffL
8ggJ
[4aa
=
4aa]
8ffL
8ggJ
8aaL
8bbJ
=
4ccc
4gg
4ee
=
4aa
4ff
4dd
!!linebreak:original
=
8eemL
8ddJ
8eeL
8ffJ
[4gg
!!linebreak:original
=
4gg]
8ggL
8aaJ
8ggL
8ffJ
=
8eemL
8ddJ
8eeL
8ffJ
[4gg
=
4gg]
8aaL
8bbJ
8aaL
8ggJ
=
8ffML
8eeJ
8ffL
8ggJ
[4aa
=
4aa]
8ffL
8ggJ
8aaL
8bbJ
=
4ccc
4gg
4ee
=
4aa
4ff
4dd
!!linebreak:original
=
8eeL
8ffJ
8eeL
8ddJ
4cc
!!linebreak:original
=
4cc
8ggL
8aaJ
8ggL
8ffJ
=||
8eemL
8ddJ
8eeL
8ffJ
[4gg
=
4gg]
8aaL
8bbJ
8aaL
8ggJ
=
8ffML
8eeJ
8ffL
8ggJ
[4aa
=
4aa]
8ffL
8ggJ
8aaL
8bbJ
=
4ccc
4gg
4ee
=
4aa
4ff
4dd
!!pagebreak:original
=
8eemL
8ddJ
8eeL
8ffJ
[4gg
!!linebreak:original
=
4gg]
8ggL
8aaJ
8ggL
8ffJ
=
8eemL
8ddJ
8eeL
8ffJ
[4gg
=
4gg]
8aaL
8bbJ
8aaL
8ggJ
=
8ffML
8eeJ
8ffL
8ggJ
[4aa
=
4aa]
8ffL
8ggJ
8aaL
8bbJ
=
4ccc
4gg
4ee
=
4aa
4ff
4dd
!!linebreak:original
=
8eeL
8ffJ
8eeL
8ddJ
4cc
=
[2.cc
=
2.cc_
=
2cc]
4gg
=||
*k[b-e-a-]
*E-:
4ccc
4bb-
4aa-
=
4gg
4ff
4bb-
=
2aa-
[4gg
=
4gg]
4cc
4dd
=
2ee-
4ff
=
2gg
4aa-
=
2gg
[4ff
!!linebreak:original
=
2ff]
4gg
=
4bb-
4aa-
4gg
=
4ff
4dd
4aa-
=
2ff
[4dd
=
4dd]
4bn
4cc
=
2dd
4ee-
=
2ff
4gg
=
2ee-
[4cc
=
2cc]
4gg
=||
4ccc
4bb-
4aa-
=
4gg
4ff
4bb-
!!linebreak:original
=
2aa-
[4gg
=
4gg]
4cc
4dd
=
2ee-
4ff
=
2gg
4aa-
=
2gg
[4ff
!!linebreak:original
=
2ff]
4gg
=
4bb-
4aa-
4gg
=
4ff
4dd
4aa-
=
2ff
[4dd
=
4dd]
4bn
4cc
=
2dd
4ee-
=
2ff
4gg
=
2ee-
[4cc
=
*k[]
*C:
4.cc]
8cc
8bL
8ccJ
!!pagebreak:original
=||
8ddL
8eeJ
8ddL
8bJ
8ccL
8ddJ
=
8eeL
8ffJ
8eeL
8ccJ
8ddL
8eeJ
=
8ffL
8ggJ
8ffL
8ddJ
8eeL
8ffJ
=
4.gg
8cc
8bL
8ccJ
=
8ddL
8eeJ
8ddL
8bJ
8ccL
8ddJ
=
8eeL
8ffJ
8eeL
8ccJ
8ddL
8eeJ
!!pagebreak:original
=
8ffL
8eeJ
8ggL
8ffJ
8eeL
8ddJ
=
4.cc
8cc
8bL
8ccJ
!!linebreak:original
=||
8ddL
8eeJ
8ddL
8bJ
8ccL
8ddJ
=
8eeL
8ffJ
8eeL
8ccJ
8ddL
8eeJ
=
8ffL
8ggJ
8ffL
8ddJ
8eeL
8ffJ
=
4.gg
8cc
8bL
8ccJ
=
8ddL
8eeJ
8ddL
8bJ
8ccL
8ddJ
=
8eeL
8ffJ
8eeL
8ccJ
8ddL
8eeJ
!!pagebreak:original
=
8ffL
8eeJ
8ggL
8ffJ
8eeL
8ddJ
=
[2.cc
=
4cc]
8ggL
8aaJ
8ggL
8ffJ
=||
4cc
4ee
4gg
=
[2.ccc
=
2.ccc_
=
4ccc]
2r
.
==
*-
!!!system-decoration: s1,s2
